images/bicycle.svg

<?xml version="1.0" encoding="UTF-8" standalone="no"?>
<svg xmlns:dc="http://purl.org/dc/elements/1.1/" xmlns:cc="http://creativecommons.org/ns#" xmlns:rdf="http://www.w3.org/1999/02/22-rdf-syntax-ns#" xmlns:svg="http://www.w3.org/2000/svg" xmlns="http://www.w3.org/2000/svg" xmlns:sodipodi="http://sodipodi.sourceforge.net/DTD/sodipodi-0.dtd" xmlns:inkscape="http://www.inkscape.org/namespaces/inkscape" version="1.1" width="14" height="14" viewBox="0 0 14 14" id="svg2" sodipodi:docname="bicycle.svg" inkscape:version="1.0.1 (3bc2e813f5, 2020-09-07)">
  <sodipodi:namedview pagecolor="#ffffff" bordercolor="#666666" borderopacity="1" objecttolerance="10" gridtolerance="10" guidetolerance="10" inkscape:pageopacity="0" inkscape:pageshadow="2" inkscape:window-width="1847" inkscape:window-height="1056" id="namedview863" showgrid="false" inkscape:pagecheckerboard="true" inkscape:zoom="21.086934" inkscape:cx="-0.371827" inkscape:cy="7.0067854" inkscape:window-x="0" inkscape:window-y="0" inkscape:window-maximized="1" inkscape:current-layer="svg2" inkscape:document-rotation="0" />
  <metadata id="metadata8">
    <rdf:RDF>
      <cc:Work rdf:about="">
        <dc:format>image/svg+xml</dc:format>
        <dc:type rdf:resource="http://purl.org/dc/dcmitype/StillImage" />
        <dc:title />
      </cc:Work>
    </rdf:RDF>
  </metadata>
  <defs id="defs6" />
  <path d="M 8,1.5 8,2.375 9.25,3.15625 9.25,4.25 5,4.25 5,3.5 l 0.5,0 c 1,0 1,-1 0,-1 l -2,0 c -1,0 -1,1 0,1 L 4,3.5 4,4.25 3.0625,6 C 3.0416,5.9995343 3.02098,6 3,6 1.387717,6 0,7.3877166 0,9 0,10.612283 1.387717,12 3,12 4.612283,12 6,10.612283 6,9 6,8.654031 5.92843,8.313419 5.8125,8 L 6.25,8 C 7,8 7.172746,7.546004 7.4375,7.28125 L 9.21875,5.25 9.75,6.28125 C 8.727462,6.7659158 8,7.824875 8,9 c 0,1.612283 1.387717,3 3,3 1.612283,0 3,-1.387717 3,-3 C 14,7.3877166 12.612283,6 11,6 10.96853,6 10.93754,5.99895 10.90625,6 L 10,4.25 10,2.65625 8,1.5 z m -3.21875,3.75 3.125,0 L 6.34375,7 5.21875,7 C 5.20027,7 5.17516,7.00212 5.15625,7 4.892847,6.7170527 4.599522,6.4803791 4.25,6.3125 4.23775,6.29387 4.22991,6.268546 4.21875,6.25 l 0.5625,-1 z M 3,7 C 4.005711,7 5,7.9942895 5,9 5,10.005711 4.005711,11 3,11 1.994289,11 1,10.005711 1,9 1,7.9942895 1.994289,7 3,7 z m 8,0 c 1.00571,0 2,0.9942895 2,2 0,1.005711 -0.99429,2 -2,2 C 9.994289,11 9,10.005711 9,9 9,7.9942895 9.994289,7 11,7 z" id="path865" style="stroke:#ffffff;stroke-opacity:0.5;stroke-width:3;stroke-miterlimit:4;stroke-dasharray:none;stroke-linejoin:round" />
  <rect width="14" height="14" x="0" y="0" id="canvas" style="fill:none;stroke:none;visibility:hidden" />
  <path d="M 8,1.5 8,2.375 9.25,3.15625 9.25,4.25 5,4.25 5,3.5 l 0.5,0 c 1,0 1,-1 0,-1 l -2,0 c -1,0 -1,1 0,1 L 4,3.5 4,4.25 3.0625,6 C 3.0416,5.9995343 3.02098,6 3,6 1.387717,6 0,7.3877166 0,9 0,10.612283 1.387717,12 3,12 4.612283,12 6,10.612283 6,9 6,8.654031 5.92843,8.313419 5.8125,8 L 6.25,8 C 7,8 7.172746,7.546004 7.4375,7.28125 L 9.21875,5.25 9.75,6.28125 C 8.727462,6.7659158 8,7.824875 8,9 c 0,1.612283 1.387717,3 3,3 1.612283,0 3,-1.387717 3,-3 C 14,7.3877166 12.612283,6 11,6 10.96853,6 10.93754,5.99895 10.90625,6 L 10,4.25 10,2.65625 8,1.5 z m -3.21875,3.75 3.125,0 L 6.34375,7 5.21875,7 C 5.20027,7 5.17516,7.00212 5.15625,7 4.892847,6.7170527 4.599522,6.4803791 4.25,6.3125 4.23775,6.29387 4.22991,6.268546 4.21875,6.25 l 0.5625,-1 z M 3,7 C 4.005711,7 5,7.9942895 5,9 5,10.005711 4.005711,11 3,11 1.994289,11 1,10.005711 1,9 1,7.9942895 1.994289,7 3,7 z m 8,0 c 1.00571,0 2,0.9942895 2,2 0,1.005711 -0.99429,2 -2,2 C 9.994289,11 9,10.005711 9,9 9,7.9942895 9.994289,7 11,7 z" id="bicycle" />
</svg>

<svg xmlns="http://www.w3.org/2000/svg" width="14" height="14">
    <path d="M8 1.5v.875l1.25.781V4.25H5V3.5h.5c1 0 1-1 0-1h-2c-1 0-1 1 0 1H4v.75L3.062 6H3C1.388 6 0 7.388 0 9s1.388 3 3 3 3-1.388 3-3a2.9 2.9 0 00-.188-1h.438c.75 0 .923-.454 1.188-.719l1.78-2.031.532 1.031C8.727 6.766 8 7.825 8 9c0 1.612 1.388 3 3 3s3-1.388 3-3-1.388-3-3-3c-.031 0-.062-.001-.094 0L10 4.25V2.656L8 1.5zM4.781 5.25h3.125L6.344 7H5.219c-.019 0-.044.002-.063 0a3.028 3.028 0 00-.906-.688c-.012-.018-.02-.043-.031-.062l.562-1zM3 7c1.006 0 2 .994 2 2s-.994 2-2 2-2-.994-2-2 .994-2 2-2zm8 0c1.006 0 2 .994 2 2s-.994 2-2 2-2-.994-2-2 .994-2 2-2z" stroke="#fff" stroke-opacity=".5" stroke-width="3" stroke-linejoin="round"/>
    <path d="M8 1.5v.875l1.25.781V4.25H5V3.5h.5c1 0 1-1 0-1h-2c-1 0-1 1 0 1H4v.75L3.062 6H3C1.388 6 0 7.388 0 9s1.388 3 3 3 3-1.388 3-3a2.9 2.9 0 00-.188-1h.438c.75 0 .923-.454 1.188-.719l1.78-2.031.532 1.031C8.727 6.766 8 7.825 8 9c0 1.612 1.388 3 3 3s3-1.388 3-3-1.388-3-3-3c-.031 0-.062-.001-.094 0L10 4.25V2.656L8 1.5zM4.781 5.25h3.125L6.344 7H5.219c-.019 0-.044.002-.063 0a3.028 3.028 0 00-.906-.688c-.012-.018-.02-.043-.031-.062l.562-1zM3 7c1.006 0 2 .994 2 2s-.994 2-2 2-2-.994-2-2 .994-2 2-2zm8 0c1.006 0 2 .994 2 2s-.994 2-2 2-2-.994-2-2 .994-2 2-2z"/>
</svg>
